src/images/icons/icon-documentation.svg

<svg xmlns="http://www.w3.org/2000/svg" xmlns:xlink="http://www.w3.org/1999/xlink" width="48" height="48"><defs><path id="a" d="M1 48h47.076V0H1z"/></defs><g fill="none" fill-rule="evenodd"><path fill="#B2D3FF" d="M21.522 48H9V2a2 2 0 0 1 2-2h8.522a2 2 0 0 1 2 2v46Z"/><path fill="#197BFF" d="M34.522 48.304H22V17h10.522a2 2 0 0 1 2 2v29.304Z"/><path fill="#B2D3FF" d="M30.174 45H26a1 1 0 1 1 0-2h4.174a1 1 0 1 1 0 2"/><path fill="#197BFF" d="M15 30.131a1 1 0 0 1-1-1V7a1 1 0 1 1 2 0v22.131a1 1 0 0 1-1 1"/><mask id="b" fill="#fff"><use xlink:href="#a"/></mask><path fill="#197BFF" d="M14 42.347h2.174v-6.348H14v6.348Zm3.174 2H13a1 1 0 0 1-1-1V35a1 1 0 0 1 1-1h4.174a1 1 0 0 1 1 1v8.347a1 1 0 0 1-1 1Z" mask="url(#b)"/><path fill="#B2D3FF" d="M28 38.783a1 1 0 0 1-1-1V21a1 1 0 1 1 2 0v16.783a1 1 0 0 1-1 1" mask="url(#b)"/><path stroke="#000" stroke-linecap="round" stroke-linejoin="round" d="M5 13v29.217" mask="url(#b)"/><path fill="#197BFF" d="M1 47.739h8.348V6H3a2 2 0 0 0-2 2v39.739Z" mask="url(#b)"/><path fill="#B2D3FF" d="m47.28 46.196-6.061 1.565L31.032 8.315a1 1 0 0 1 .718-1.218l4.127-1.065a1 1 0 0 1 1.218.718L47.28 46.196Z" mask="url(#b)"/></g></svg>

<?xml version="1.0" encoding="UTF-8"?>
<svg width="48px" height="48px" viewBox="0 0 48 48" version="1.1" xmlns="http://www.w3.org/2000/svg" xmlns:xlink="http://www.w3.org/1999/xlink">
    <!-- Generator: Sketch 50.2 (55047) - http://www.bohemiancoding.com/sketch -->
    <title>icon-documentation</title>
    <desc>Created with Sketch.</desc>
    <defs>
        <polygon id="path-1" points="1 48 48.076 48 48.076 0 1 0"></polygon>
    </defs>
    <g id="icon-documentation" stroke="none" stroke-width="1" fill="none" fill-rule="evenodd">
        <path d="M21.522,48 L9,48 L9,2 C9,0.895 9.896,0 11,0 L19.522,0 C20.627,0 21.522,0.895 21.522,2 L21.522,48 Z" id="Fill-1" fill="#B2D3FF"></path>
        <path d="M34.522,48.304 L22,48.304 L22,17 L32.522,17 C33.627,17 34.522,17.895 34.522,19 L34.522,48.304 Z" id="Fill-3" fill="#197BFF"></path>
        <path d="M30.174,45 L26,45 C25.448,45 25,44.553 25,44 C25,43.447 25.448,43 26,43 L30.174,43 C30.726,43 31.174,43.447 31.174,44 C31.174,44.553 30.726,45 30.174,45" id="Fill-5" fill="#B2D3FF"></path>
        <path d="M15,30.131 C14.448,30.131 14,29.684 14,29.131 L14,7 C14,6.447 14.448,6 15,6 C15.552,6 16,6.447 16,7 L16,29.131 C16,29.684 15.552,30.131 15,30.131" id="Fill-7" fill="#197BFF"></path>
        <mask id="mask-2" fill="white">
            <use xlink:href="#path-1"></use>
        </mask>
        <g id="Clip-10"></g>
        <path d="M14,42.347 L16.174,42.347 L16.174,35.999 L14,35.999 L14,42.347 Z M17.174,44.347 L13,44.347 C12.448,44.347 12,43.9 12,43.347 L12,35 C12,34.447 12.448,34 13,34 L17.174,34 C17.726,34 18.174,34.447 18.174,35 L18.174,43.347 C18.174,43.9 17.726,44.347 17.174,44.347 Z" id="Fill-9" fill="#197BFF" mask="url(#mask-2)"></path>
        <path d="M28,38.783 C27.448,38.783 27,38.336 27,37.783 L27,21 C27,20.447 27.448,20 28,20 C28.552,20 29,20.447 29,21 L29,37.783 C29,38.336 28.552,38.783 28,38.783" id="Fill-11" fill="#B2D3FF" mask="url(#mask-2)"></path>
        <path d="M5,13 L5,42.217" id="Stroke-12" stroke="#000000" stroke-linecap="round" stroke-linejoin="round" mask="url(#mask-2)"></path>
        <path d="M1,47.739 L9.348,47.739 L9.348,6 L3,6 C1.895,6 1,6.895 1,8 L1,47.739 Z" id="Fill-13" fill="#197BFF" mask="url(#mask-2)"></path>
        <path d="M47.2799423,46.1960045 L41.2189423,47.7610045 L31.0319423,8.31500446 C30.8939423,7.78000446 31.2159423,7.23500446 31.7499423,7.09700446 L35.8769423,6.03200446 C36.4119423,5.89400446 36.9569423,6.21500446 37.0949423,6.75000446 L47.2799423,46.1960045 Z" id="Fill-14" fill="#B2D3FF" mask="url(#mask-2)"></path>
    </g>
</svg>
